X:1
T:O piaggia
T:O piaggia
T:Bartolomeo Spighi da Prato
C:Bartolomeo Spighi da Prato
%%score [ 1 2 ] { ( 3 5 ) | 4 }
L:1/8
Q:1/4=120
M:3/2
K:C
V:1 treble-8 nm="Tenor 1" snm="T 1"
V:2 treble-8 nm="Tenor 2" snm="T 2"
V:3 treble nm="MusicXML Part"
V:5 treble 
V:4 bass 
V:1
"^Source: Musical Concerto d'arie e canzonettte---Fiorenza---Z.Pignoni--1641.\nEditor: André Vierendeels (10/12/08)\nContinuo: AndréVierendeels""^Prima parte" z12 | %1
w: |
 z12"^CIACCONA" | z12 | z12 | z8 g4 | g4 d4 e4 | f2 e2 d2 c2 B2 A2 | B4 G4 d4 | e4 e4 e4 | d12 | %10
w: |||O|Piag- gia- fe-|li- * * * * *|* ce al-|ber- go, be-|a-|
 c12 | z12 | z8 g4 | g12- | g4 ^f4 f4 | g4 d8 | e12 | d12 | c4 d4 c4 | c8 B4 |1[M:1/1] c8 :|2 %21
w: to||al-|ber-|* go, be-|a- to|del|mio|bel sol' a-|ma- *|to|
[M:1/2] c4 |:[M:3/2] d4 d4 d4 | e2 d2 c2 B2 A4 | B8 g4 | g4 g4 g4 | g4 d4 e4 | f4 c4 d4 | e4 B8 | %29
w: Per-|che per ch'il|cor- * * * *|re ti|mi- ra'e non|mo- re non-|mo- r'in- fe-|li- ce|
 z8 e4 | d4 g4 g4 | a4 e4 f4 | g4 d4 d4 | e4 e4 c4 | d2 c2 d2 e2 f2 g2 | a4 a2 g2 f2 e2 | d12 |1 %37
w: ti|mir' e non|mo- re non|mo- r'in- fe|li- ce, o|Piag- * * * * *|* * * gia fe-|li-|
 c8 c4 ::2 c12 || z12 | z12 | z12 | z12 | z12 | z12 | z12"^Seconda parte" | z8 c4 | d6 c2 d2 e2 | %48
w: ce, per|ce.||||||||O|sel- * * *|
 f4 f4 e4 | g6 f2 e2 d2 | c4 c4 g4 | g12 | c8 c4 | d4 d4 B4 | e6 d2 e2 c2 | d4 d4 d4 | %56
w: * va, o|sel- * * *|* va Ro-|mi-|ta- tu|go- di il|bel vi- * *|* so, tu|
 e6 d2 e2 f2 | g4 g4 g4 | g12 | g8 G4 | c6 B2 c2 d2 | e4 d4 d4 | e6 d2 c2 B2 | d4 d4 g4 | %64
w: god'- * * *|* il bel|vi-|so, tu|god' _ _ _|_ il bel|vi- * * *|* so che|
 f4 f4 e4 | d12 | c12 :: z12 | z8 c4 | c4 B4 d4 | e12 | d12 | z8 c4 | d4 d4 B4 | e4 e4 c4 | %75
w: mio Pa- ra-|di-|so.||ne|puo ne puol|pie-|de|se-|guen- do, se-|guen- do mia|
 d4 d4 d4 | c12- | c4 c4 B4 | A12 | G8 B4 | c4 A4 c4 | c8 B4 :| c12 |: z12 | z12 | z12 | z12 | %87
w: fe- de di|qui|_ far par-|ti-|ta, o|sel- va Ro-|mi- *|ta.|||||
 z12 | z12 | z12 | z12 | z12 | z8 e4 | g8 d4 | e4 d4 c4 | d4 d4 g4 | g6 f2 e2 f2 | %97
w: |||||Oi-|me, oi|me ch'io ti|mi- ro ma|spar- * * *|
 g2 f2 g2 f2 e2 d2 | e4 c4 a4 | a8 ^g4 | a8 z4 | z8 d4 | e8 f4 | g4 f4 g4 | a4 a4 a4 | %105
w: |go da lu-|mi, oi|me,|oi|me ch'io|ti mi- *|ro ma spar-|
 d6 c2 d2 B2 | e4 d4 c4 | d4 d4 d4 | c4 c4 c4 | c8 B4 |1 c12 ::2 c12 || z12 | z12 | z8 g4 | %115
w: |* go da|lu- mi dua|dua tor- bi-|di fiu|mi,||||non|
 a4 g4 f4 | g12 | a8 f4 | g6 f2 g2 d2 | e4 e4 e4 | d12 | e8 f4 | f4 f4 e4 | g4 g4 e4 | d8 d4 | %125
w: ha non ha'l|pet-|to piu|gio- * * *|* ie di-|let-|to ma|do- glia e|mar- ti- ro|oi me,|
 c4 d4 c4 |1 c8 B4 :|2 c12 |: z12 | z12 | z12 | z12 | z12 | z12"^(Quarta parte)" | z12 | g12- | %136
w: oi me ch'io|ti mi-|ro.||||||||O|
 g12 | e4 e4 f4 | g12 | e8 e4 | d4 c4 B4 | c12 | B8 g4 | g12- | g4 g4 g4 | a12 | d12 | e12 | d12 | %149
w: _|quan- to fia|ma-|i che|fac- cia ri-|tor-|no, che|fac-|* cia ri-|tor-|no|il|mio|
 c4 c4 c4 | g12- | g12- | g4 g4 g4 | a4 a2 g2 f2 e2 | d12 |1 c12 ::2 c8 g4 || g4 g4 d4 | e4 d4 c4 | %159
w: sol' il mio|sol|_|* il mio|sol' a- * * *|dor-|no|no fa-|ra fa- ra'l|se- no con-|
 d4 c4 B4 | c4 c4 c4 | d4 d4 g4 | g8 ^f4 | g8 g4 | e4 e4 e4 | d12 | c8 c4 | B4 B4 g4 | g12 | %169
w: ten- t'e se-|re- no mi-|ran d'i bei|ra- *|i, mi-|ran- d'i bei|ra-|i, o|quan- to fia|ma-|
 d8 d4 | f4 f4 e4 | d12 :| c12 |] %173
w: i o|quan- to fia|ma-|i.|
V:2
 z8 g4 | g4 d4 e4 | f2 e2 d2 c2 B2 A2 | B4 G4 d4 | e4 e4 e4 | d12 | c8 e4 | g12- | g12- | g12- | %10
w: O|Piag- gia fe-|li- * * * * *|* ce al-|ber- go be-|a-|to, al-|ber-|||
 g4 ^f4 f4 | g4 g4 d4 | e4 e4 e4 | d12 | c12 | z8 g4 | g12- | g8 g4 | a4 a2 g2 f2 e2 | d12 |1 %20
w: * go be-|a- to, al-|ber- go be-|a-|to|del|mio|_ bel|sol' a- * * *|ma-|
[M:1/1] c8 :|2[M:1/2] z4 |:[M:3/2] z12 | z8 c4 | d4 d4 d4 | e2 d2 c2 B2 A4 | G8 z4 | z12 | z8 g4 | %29
w: to|||Per|che per ch'il|co- * * * *|re||ti|
 g4 g4 g4 | g4 d4 e4 | f4 c4 d4 | e4 B4 g4 | a4 e4 f4 | g4 g4 d4 | e4 d4 c4 | c8 B4 |1 c12 ::2 %38
w: mir' e non|mo- re non-|mo- r'in- fe-|li- ce, non|mo- r'in- fe-|li- ce, o|Piag- gia fe-|li- *|ce.|
 c12 || z12 | z12 | z12 | z12 | z12 | z12 | z12 | z12 | z12 | z12 | z12 | z8 c4 | d6 c2 d2 e2 | %52
w: ce.||||||||||||O|sel- * * *|
 f4 f4 e4 | g6 f2 e2 d2 | c4 c4 g4 | g12 | c8 c4 | d4 d4 B4 | e6 d2 e2 c2 | d4 d4 d4 | %60
w: * va,- o|sel- * * *|* va Ro-|mi-|ta, tu|god' il bel|vi- * * *|* so, tu|
 e6 d2 e2 f2 | g4 g4 g4 | g6 f2 e2 d2 | g4 g4 d4 | c8 c4 | c4 c4 B4 | c8 g4 :: g4 ^f4 g4 | a12 | %69
w: god' _ _ _|_ il bel|vi- * * *|* o che|mio Pa-|ra- di- *|so, ne|puo ne puol|Pie-|
 d12 | z8 g4 | g4 g4 d4 | a4 a4 e2 f2 | g4 g4 g4 | g12- | g4 g4 g4 | g8 ^f4 | g8 d4 | e6 d2 e2 c2 | %79
w: de|se-|guen- do, se-|guen- do mi- a|fe- de- mia,|qui|_ far par-|ti- *|ta, o|sel- * * *|
 d4 d4 d4 | f4 f4 e4 | d12 :| c12 |: z12 | z12 | z12 | z12 | z12 | z12 | z12"^(Terza parte)" | %90
w: * va, o|sel- va Ro-|mi-|ta.||||||||
 z8 e4 | g8 d4 | e4 d4 c4 | d4 d4 g4 | g6 f2 e2 f2 | g2 f2 g2 f2 e2 d2 | e4 d4 c4 | d4 B4 z4 | %98
w: Oi|e, oi|me ch'io ti|mi- ro ma|spar- * * *||* go da|lu- mi,|
 z8 c4 | d8 e4 | f4 e4 f4 | g12 | g8 a4 | d6 c2 d2 B2 | e4 d4 c4 | B4 B4 g4 | g4 f4 g4 | %107
w: oi|me oi|me ch'io- ti|mi-|ro ma|spar- * * *|* go da|lu- mi, da|lu- mi dua|
 g6 f2 e2 d2 | e4 f4 e4 | d12 |1 c12 ::2 c8 c4 || d4 c4 B4 | c12 | B12 | z8 c4 | d6 c2 d2 B2 | %117
w: tor- * * *|* bi- di|fiu-|mi,|mi, non|ha non ha'l|pet-|to|piu|gio- * * *|
 c4 c4 c4 | B12 | A8 A4 | B4 B4 d4 | d8 ^c4 | d4 g8 | e8 g4 | g12- | g4 f4 e4 |1 d12 :|2 c12 |: %128
w: * ie di-|let-|to ma|do- glia e|mar- ti-|r'oi _|me, oi|me|_ ch'io ti|mi-|ro.|
 z12 | z12 | z12 | z12 | z12 | z12 | z12 | z12 | z12 | z12 | z12 | g12- | g12 | e4 e4 f4 | g12 | %143
w: |||||||||||O|_|quan- to fia|ma-|
 e8 e4 | d4 c4 B4 | c12 | B4 g8 | g12- | g4 g4 g4 | a12 | d12 | e12 | d12 | c12 | c4 c4- B4 |1 %155
w: i che|fa- cia ri-|tor-|no che|fac-|* cia ri-|tor-|no|il|mio|sol'|a- dor- *|
 c12 ::2 c12 || z12 | z12 | z12 | z8 g4 | g4 g4 d4 | e4 d4 c4 | d4 c4 B4 | c4 c4 c4 | d4 d4 g4 | %166
w: no|no||||fa-|ra fa- ra'l|se- no con-|ten- t'e se-|re- no mi-|ran- d'i bei|
 g8 ^f4 | g8 d4 | e6 d2 e2 f2 | g4 g4 g4 | a4 c4 c4 | c8 B4 :| c12 |] %173
w: ra- *|i, o|quan- * * *|* to, o|quan- to fia|ma- *|i.|
V:3
 [EG]12 | [DG]12 | [CA]12 | [DG]12 | [EG]12 | [DG]12 | [CA]12 | [DG]12 | [EG]12 | [DG]12 | [Ec]12 | %11
 [DB]12 | [EG]12 | [DG]12 | [CA]12 | [DB]12 | [EG]12 | [DG]12 | [CA]12 | [DG]12 |1[M:1/1] [EG]8 :|2 %21
[M:1/2] [EG]4 |:[M:3/2] [DG]12 | [EA]12 | [DB]12 | [EG]12 | [DG]12 | [FA]12 | [DG]12 | [EG]12 | %30
 [DG]12 | [Ec]12 | [DG]12 | [EG]12 | [DG]12 | [EA]4 [FA]8 | [DG]12 |1 [EG]12 ::2 [EG]8 [Eg]4 || %39
 G12 | D12 | D12 | E12 | G12 | E12 | D12 | E12 | [DG]12 | [FA]12 | [DB]12 | [EG]12 | [DG]12 | %52
 [FA]12 | [DG]12 | [EG]12 | [DG]12 | [Ec]12 | B12 | [Gc]12 | [GB]12 | [EA]12 | [CG]4 [DB]8 | %62
 [EG]12 | [DG]12 | [FA]12 | [DG]12 | [EG]12 :: [DG]12 | [CA]12 | [DG]12 | [EG]12 | [DG]12 | %72
 [CA]12 | [DG]12 | [EG]12 | [DG]12 | [CA]12 | [DG]8 [GB]4 | [FA]12 | [DG]12 | [FA]8 [Fc]4 | %81
 [Gd]12 :| [EGc]8 [Ec]4 |: d4 c4 B4 | e4 f4 g4 | B4 c4 d4 | G4 A4 B4 | G4 A4 B4 | A4 B4 c4 | %89
 d4 c4 B4 | [EG]12 | [DG]12 | E12 | G4 A4 B4 | e4 d4 c4 | D12 | E12 | G12 | E12 | [DA]8 [E^G]4 | %100
 [FA]4 [EG]4 [FA]4 | D12 | E12 | D12 | E12 | D12 | G12 | D12 | [CE]4 [FA]4 [CA]4 | [DG]12 |1 %110
 [EG]12 ::2 G4 c4 e4 || d4 z4 z4 | x12 | x12 | x12 | x12 | x12 | x12 | x12 | x12 | A8 G4 | x12 | %123
 x12 | x12 | x12 |1 x12 :|2 [EG]8 [EG]4 |: [DG]12 | A12 | B12 | [EG]12 | [DG]12 | [CA]12 | [DG]12 | %135
 [EG]12 | [DG]12 | [EA]12 | [DB]12 | [EG]12 | [DG]12 | [EA]12 | [DB]12 | [EG]12 | [DG]12 | [EA]12 | %146
 [DB]12 | [Gc]12 | [DG]12 | [EA]12 | [DB]12 | [EG]12 | [DG]12 | [FA]12 | [DG]12 |1 [EG]12 ::2 %156
 [EG]12 || D12 | E12 | [Bd]4 [Ac]4 [GB]4 | [EG]12 | [DG]12 | [DA]12 | [DB]12 | [EG]12 | [DG]12 | %166
 [CA]12 | %167
 [DG]12"^Notes: Original keys:Ut 3rd, Ut 3rd, Fa 4rt\n            Dotted brackets indicate black notes""^m116 in T2: \"do\" for \"mi\" in original print" | %168
 [EG]12 | [DG]12 | [FA]8 [CE]4 | [DG]12 :| [EG]12 |] %173
V:4
 C12 | B,12 | A,12 | G,12 | C12 | B,12 | A,12 | G,12 | C12 | B,12 | A,12 | G,12 | C12 | B,12 | %14
 A,12 | G,12 | C12 | B,12 | A,12 | G,12 |1[M:1/1] C,8 :|2[M:1/2] C4 |:[M:3/2] B,12 | A,12 | G,12 | %25
 C12 | B,12 | A,12 | G,12 | C12 | B,12 | A,12 | G,12 | C12 | B,12 | A,4 F,8 | G,12 |1 C,8 C4 ::2 %38
 C,8 C4 || B,12 | A,12 | G,12 | C12 | B,12 | A,12 | G,12 | C12 | B,12 | A,12 | G,12 | C12 | B,12 | %52
 A,12 | G,12 | C12 | B,12 | A,12 | G,12 | C12 | B,12 | A,12 | G,12 | C12 | B,12 | A,12 | G,12 | %66
 C,8 C4 :: B,12 | A,12 | G,12 | C12 | B,12 | A,12 | G,12 | C12 | B,12 | A,12 | G,12 | C12 | B,12 | %80
 A,4 F,8 | G,12 :| C,4 C8 |: B,12 | A,12 | G,12 | C12 | B,12 | A,12 | G,12 | C12 | B,12 | A,12 | %93
 G,12 | C12 | B,12 | A,12 | G,12 | C12 | B,12 | A,12 | G,12 | C12 | B,12 | A,12 | G,12 | C12 | %107
 B,12 | A,4 F,8 | G,12 |1 C,8 C4 ::2 C,8 C4 || B,12 | A,12 | G,12 | C12 | B,12 | A,12 | G,12 | %119
 C12 | B,12 | A,12 | G,12 | C12 | B,12 | A,12 |1 G,12 :|2 C,8 C4 |: B,12 | A,12 | G,12 | C12 | %132
 B,12 | A,12 | G,12 | C12 | B,12 | A,12 | G,12 | C12 | B,12 | A,12 | G,12 | C12 | B,12 | A,12 | %146
 G,12 | C12 | B,12 | A,12 | G,12 | C12 | B,12 | A,4 F,8 | G,12 |1 C,4 C8 ::2 C,4 C8 || B,12 | %158
 A,12 | G,12 | C12 | B,12 | A,12 | G,12 | C12 | B,12 | A,12 | G,12 | C12 | B,12 | A,12 | G,12 :| %172
 C,12 |] %173
V:5
 x12 | x12 | x12 | x12 | x12 | x12 | x12 | x12 | x12 | x12 | x12 | x12 | x12 | x12 | x12 | x12 | %16
 x12 | x12 | x12 | x12 |1[M:1/1] x8 :|2[M:1/2] x4 |:[M:3/2] x12 | x12 | x12 | x12 | x12 | x12 | %28
 x12 | x12 | x12 | x12 | x12 | x12 | x12 | x12 | x12 |1 x12 ::2 x12 || g4 d4 e4 | %40
 f2 e2 d2 c2 B2 A2 | B4 G4 d4 | e4 e4 e4 | d12 | c8 e4 | B4 G4 d4 | e4 e4 e4 | x12 | x12 | x12 | %50
 x12 | x12 | x12 | x12 | x12 | x12 | x12 | x12 | x12 | x12 | x12 | x12 | x12 | x12 | x12 | x12 | %66
 x12 :: x12 | x12 | x12 | x12 | x12 | x12 | x12 | x12 | x12 | x12 | x12 | x12 | x12 | x12 | x12 :| %82
 x12 |: G12 | A12 | D12 | E12 | D12 | E12 | D12 | x12 | x12 | e4 d4 c4 | D12 | E12 | G4 A4 B4 | %96
 e4 d4 c4 | d4 e4 f4 | c4 A4 c4 | x12 | x12 | G4 A4 B4 | G8 A4 | G4 F4 G4 | A12 | B8 d4 | %106
 e4 d4 c4 | G4 F4 G4 | x12 | x12 |1 x12 ::2 E12 || G12 | [EA]12 | [GB]12 | [Ec]12 | [DG]12 | %117
 [CA]12 | [DG]12 | [EA]12 | [DB]12 | E12 | [DB]12 | [Gc]12 | [DG]12 | [CE]4 [FA]4 [CA]4 |1 %126
 [DG]12 :|2 x12 |: x12 | C12 | D12 | x12 | x12 | x12 | x12 | x12 | x12 | x12 | x12 | x12 | x12 | %141
 x12 | x12 | x12 | x12 | x12 | x12 | x12 | x12 | x12 | x12 | x12 | x12 | x12 | x12 |1 x12 ::2 %156
 x12 || G8 B4 | c4 B4 A4 | x12 | x12 | x12 | x12 | x12 | x12 | x12 | x12 | x12 | x12 | x12 | x12 | %171
 x12 :| x12 |] %173

